X: 34924
T: Rockfield
R: reel
M: 4/4
K: Bminor
FBBA ~B2 dB|AFFF DFAF|EBBA Bcdf|~e2 ef edBA|
FBBA ~B2 dB|AFFF DFAF|EBBA Bcde|fgfe dBBA|
FBBA ~B2 dB|AFFF DFAF|EBBA Bcde|fbaf gfef|
dBBA ~B2 dB|AFFF DFAF|EBBA ~B3A|(3Bcd BA Bcde|
~f3b bafb|afff fedf|eBBA ~B3f|edBA Bcde|
~f3b bafb|afff fedf|e2ba bafa|~e3b bafe|
~f3b bafb|afff fedf|eBBA ~B3f|edBA (3Bcd BA|
~F3A Bcde|f2fg fedf|edBf edBf|1 edef edBA:|2 edef afec|B8||

